Newaita-dark/apps/16/hyperterm.svg

<svg height="16" viewBox="0 0 16 16" width="16" xmlns="http://www.w3.org/2000/svg" xmlns:xlink="http://www.w3.org/1999/xlink"><linearGradient id="a" gradientUnits="userSpaceOnUse" x1="7.607496" x2="7.607496" y1="14.0169675" y2="14.67848950002"><stop offset="0" stop-opacity=".27451"/><stop offset="1" stop-opacity="0"/></linearGradient><linearGradient id="b"><stop offset="0" stop-opacity=".313726"/><stop offset=".222222" stop-opacity=".27451"/><stop offset="1" stop-opacity="0"/></linearGradient><radialGradient id="c" cx="450.908936" cy="189.579361" gradientTransform="matrix(.00000009 -.0390662 -.0703192 -.00000005 26.726844 31.797666)" gradientUnits="userSpaceOnUse" r="21.166656" xlink:href="#b"/><radialGradient id="d" cx="450.908936" cy="189.579361" gradientTransform="matrix(-.00000009 .0390662 .0703192 .00000005 -10.850327 -3.763739)" gradientUnits="userSpaceOnUse" r="21.166656" xlink:href="#b"/><radialGradient id="e" cx="450.908936" cy="189.579361" gradientTransform="matrix(-.00000009 -.0390662 .0703192 -.00000005 -10.850327 31.797666)" gradientUnits="userSpaceOnUse" r="21.166656" xlink:href="#b"/><radialGradient id="f" cx="450.908936" cy="189.579361" gradientTransform="matrix(.00000009 .0390662 -.0703192 .00000005 26.726843 -3.76374)" gradientUnits="userSpaceOnUse" r="21.166656" xlink:href="#b"/><linearGradient id="g" gradientTransform="matrix(.0360368 0 0 .0953132 -2.454603 15.588246)" gradientUnits="userSpaceOnUse" x1="306.752655" x2="305.954529" y1="-16.485477" y2="-141.414581"><stop offset="0" stop-color="#ffa726"/><stop offset="1" stop-color="#f06292"/></linearGradient><linearGradient id="h" gradientTransform="matrix(.0326047 0 0 .0794276 -1.464807 14.003323)" gradientUnits="userSpaceOnUse" x1="308.684967" x2="308.684967" y1=".171737" y2="-149.743195"><stop offset="0" stop-color="#424242"/><stop offset="1" stop-color="#616161"/></linearGradient><path d="m2.316406 14.054688h11.246094v.625h-11.246094zm0 0" fill="url(#a)"/><path d="m13.5625 14.015625h1.320312v-.660156h-1.320312zm0 0" fill="url(#c)"/><path d="m2.316406 14.015625h-1.324218v.664063h1.324218zm0 0" fill="url(#d)"/><path d="m2.316406 14.015625h-1.324218v-.660156h1.324218zm0 0" fill="url(#e)"/><path d="m13.5625 14.015625h1.320312v.664063h-1.320312zm0 0" fill="url(#f)"/><path d="m1.652344 2.109375h12.570312c.367188 0 .660156.28125.660156.625v10.65625c0 .347656-.292968.625-.660156.625h-12.570312c-.363282 0-.660156-.277344-.660156-.625v-10.65625c0-.34375.296874-.625.660156-.625zm0 0" fill="url(#g)"/><path d="m1.652344 2.109375c-.363282 0-.660156.277344-.660156.625v.164063c0-.34375.296874-.625.660156-.625h12.570312c.367188 0 .660156.28125.660156.625v-.164063c0-.347656-.292968-.625-.660156-.625zm0 0" fill="#fff" fill-opacity=".392157"/><path d="m1.652344 14.023438c-.363282 0-.660156-.28125-.660156-.625v-.167969c0 .347656.296874.625.660156.625h12.570312c.367188 0 .660156-.277344.660156-.625v.167969c0 .34375-.292968.625-.660156.625zm0 0" fill-opacity=".235294"/><path d="m1.984375 2.730469c-.203125 0-.371094.167969-.371094.371093v9.261719c0 .203125.167969.371094.371094.371094h11.90625c.207031 0 .371094-.167969.371094-.371094v-9.261719c0-.203124-.164063-.371093-.371094-.371093zm0 .078125h11.90625c.164063 0 .292969.132812.292969.292968v9.261719c0 .164063-.128906.292969-.292969.292969h-11.90625c-.160156 0-.292969-.128906-.292969-.292969v-9.261719c0-.160156.132813-.292968.292969-.292968zm0 0" fill="#111" fill-opacity=".588235"/><path d="m1.984375 2.769531h11.90625c.183594 0 .332031.148438.332031.332031v9.261719c0 .183594-.148437.332031-.332031.332031h-11.90625c-.183594 0-.332031-.148437-.332031-.332031v-9.261719c0-.183593.148437-.332031.332031-.332031zm0 0" fill="url(#h)"/><path d="m1.984375 2.816406c-.160156 0-.285156.128906-.285156.285156v9.261719c0 .160157.125.285157.285156.285157h11.90625c.160156 0 .289063-.125.289063-.285157v-9.261719c0-.15625-.128907-.285156-.289063-.285156zm0 .078125h11.90625c.117187 0 .210937.089844.210937.207031v9.261719c0 .117188-.09375.207031-.210937.207031h-11.90625c-.117187 0-.207031-.089843-.207031-.207031v-9.261719c0-.117187.089844-.207031.207031-.207031zm0 0" fill="#dedede" fill-opacity=".705882"/><path d="m52.869951-147.506445h402.211591c11.748878 0 21.122983 8.99914 21.122983 19.99809v340.967439c0 11.123938-9.374105 19.99809-21.122983 19.99809h-402.211591c-11.62389 0-21.122983-8.874152-21.122983-19.99809v-340.967439c0-10.99895 9.499093-19.99809 21.122983-19.99809zm0 0" fill="none" stroke="#212121" stroke-linecap="round" stroke-width="3" transform="matrix(.031253 0 0 .031253 0 6.719392)"/><path d="m8.28125 4.757812c-.117188-.003906-.230469.054688-.292969.152344l-1.652343 2.648438c-.105469.164062-.042969.382812.132812.46875l1.140625.367187-.644531 1.878907c-.054688.15625.015625.324218.160156.398437.140625.074219.320312.035156.417969-.09375l1.984375-2.648437c.121094-.164063.066406-.402344-.117188-.492188l-1.140625-.367188.324219-1.929687c.035156-.195313-.113281-.378906-.3125-.382813zm0 0" fill="#ececec" fill-opacity=".588235"/><path d="m8.570312 5.28125-.300781 1.789062.050781.019532.273438-1.617188c.011719-.066406.003906-.132812-.023438-.191406zm.976563 2.617188c-.007813.011718-.011719.023437-.019531.03125l-1.984375 2.648437c-.097657.128906-.277344.167969-.417969.09375-.0625-.03125-.109375-.078125-.136719-.136719l-.023437.070313c-.054688.152343.015625.320312.160156.398437.140625.074219.320312.035156.417969-.097656l1.984375-2.644531c.082031-.109375.082031-.253907.019531-.363281zm-3.21875 0c-.09375.164062-.03125.375.140625.460937l1.035156.332031.105469-.296875-1.140625-.367187c-.0625-.03125-.109375-.074219-.140625-.128906zm0 0" fill-opacity=".235294"/><path d="m8.257812 4.757812c-.109374 0-.210937.058594-.269531.152344l-1.652343 2.648438c-.070313.105468-.066407.238281-.007813.339844.003906-.003907.003906-.007813.007813-.011719l1.652343-2.644531c.0625-.101563.175781-.160157.292969-.15625.132812.003906.242188.085937.289062.195312l.023438-.140625c.035156-.195313-.113281-.378906-.3125-.382813-.007812 0-.015625 0-.023438 0zm.0625 2.332032-.050781.3125 1.140625.363281c.058594.03125.105469.078125.136719.132813.09375-.164063.035156-.375-.136719-.460938zm-.816406 1.601562-.539062 1.582032c-.03125.089843-.019532.183593.023437.261718l.621094-1.8125zm0 0" fill="#fff" fill-opacity=".392157"/><path d="m264.974696-62.764538c-3.749642-.124988-7.374296 1.749833-9.374105 4.874535l-52.869951 84.741907c-3.374678 5.249499-1.374869 12.248831 4.249594 14.998568l36.496515 11.748878-20.62303 60.119259c-1.749833 4.999523.499952 10.374009 5.12451 12.748782 4.49957 2.374774 10.249021 1.124893 13.373723-2.999713l63.493937-84.741908c3.87463-5.249498 2.124797-12.87377-3.749642-15.748496l-36.496515-11.748878 10.374009-61.744103c1.124893-6.249404-3.624654-12.123843-9.999045-12.248831zm0 0" fill="none" stroke="#212121" stroke-linecap="round" stroke-linejoin="round" stroke-width="3" transform="matrix(.031253 0 0 .031253 0 6.719392)"/></svg>

<?xml version="1.0" encoding="UTF-8"?>
<svg xmlns="http://www.w3.org/2000/svg" xmlns:xlink="http://www.w3.org/1999/xlink" width="16px" height="16px" viewBox="0 0 16 16" version="1.1">
<defs>
<linearGradient id="linear0" gradientUnits="userSpaceOnUse" x1="254" y1="233.5" x2="254" y2="254.666672" gradientTransform="matrix(0.031253,0,0,0.031253,-0.330766,6.719392)">
<stop offset="0" style="stop-color:rgb(0%,0%,0%);stop-opacity:0.27451;"/>
<stop offset="1" style="stop-color:rgb(0%,0%,0%);stop-opacity:0;"/>
</linearGradient>
<radialGradient id="radial0" gradientUnits="userSpaceOnUse" cx="450.908936" cy="189.579361" fx="450.908936" fy="189.579361" r="21.166656" gradientTransform="matrix(0.0000000870852,-0.0390662,-0.0703192,-0.0000000507693,26.726844,31.797666)">
<stop offset="0" style="stop-color:rgb(0%,0%,0%);stop-opacity:0.313726;"/>
<stop offset="0.222222" style="stop-color:rgb(0%,0%,0%);stop-opacity:0.27451;"/>
<stop offset="1" style="stop-color:rgb(0%,0%,0%);stop-opacity:0;"/>
</radialGradient>
<radialGradient id="radial1" gradientUnits="userSpaceOnUse" cx="450.908936" cy="189.579361" fx="450.908936" fy="189.579361" r="21.166656" gradientTransform="matrix(-0.0000000870852,0.0390662,0.0703192,0.0000000507693,-10.850327,-3.763739)">
<stop offset="0" style="stop-color:rgb(0%,0%,0%);stop-opacity:0.313726;"/>
<stop offset="0.222222" style="stop-color:rgb(0%,0%,0%);stop-opacity:0.27451;"/>
<stop offset="1" style="stop-color:rgb(0%,0%,0%);stop-opacity:0;"/>
</radialGradient>
<radialGradient id="radial2" gradientUnits="userSpaceOnUse" cx="450.908936" cy="189.579361" fx="450.908936" fy="189.579361" r="21.166656" gradientTransform="matrix(-0.0000000870852,-0.0390662,0.0703192,-0.0000000507693,-10.850327,31.797666)">
<stop offset="0" style="stop-color:rgb(0%,0%,0%);stop-opacity:0.313726;"/>
<stop offset="0.222222" style="stop-color:rgb(0%,0%,0%);stop-opacity:0.27451;"/>
<stop offset="1" style="stop-color:rgb(0%,0%,0%);stop-opacity:0;"/>
</radialGradient>
<radialGradient id="radial3" gradientUnits="userSpaceOnUse" cx="450.908936" cy="189.579361" fx="450.908936" fy="189.579361" r="21.166656" gradientTransform="matrix(0.0000000870852,0.0390662,-0.0703192,0.0000000507693,26.726843,-3.76374)">
<stop offset="0" style="stop-color:rgb(0%,0%,0%);stop-opacity:0.313726;"/>
<stop offset="0.222222" style="stop-color:rgb(0%,0%,0%);stop-opacity:0.27451;"/>
<stop offset="1" style="stop-color:rgb(0%,0%,0%);stop-opacity:0;"/>
</radialGradient>
<linearGradient id="linear1" gradientUnits="userSpaceOnUse" x1="306.752655" y1="-16.485477" x2="305.954529" y2="-141.414581" gradientTransform="matrix(0.0360368,0,0,0.0953132,-2.454603,15.588246)">
<stop offset="0" style="stop-color:rgb(100%,65.490198%,14.901961%);stop-opacity:1;"/>
<stop offset="1" style="stop-color:rgb(94.117647%,38.431373%,57.254905%);stop-opacity:1;"/>
</linearGradient>
<linearGradient id="linear2" gradientUnits="userSpaceOnUse" x1="308.684967" y1="0.171737" x2="308.684967" y2="-149.743195" gradientTransform="matrix(0.0326047,0,0,0.0794276,-1.464807,14.003323)">
<stop offset="0" style="stop-color:rgb(25.882354%,25.882354%,25.882354%);stop-opacity:1;"/>
<stop offset="1" style="stop-color:rgb(38.039216%,38.039216%,38.039216%);stop-opacity:1;"/>
</linearGradient>
</defs>
<g id="surface1">
<path style=" stroke:none;fill-rule:nonzero;fill:url(#linear0);" d="M 2.316406 14.054688 L 13.5625 14.054688 L 13.5625 14.679688 L 2.316406 14.679688 Z M 2.316406 14.054688 "/>
<path style=" stroke:none;fill-rule:nonzero;fill:url(#radial0);" d="M 13.5625 14.015625 L 14.882812 14.015625 L 14.882812 13.355469 L 13.5625 13.355469 Z M 13.5625 14.015625 "/>
<path style=" stroke:none;fill-rule:nonzero;fill:url(#radial1);" d="M 2.316406 14.015625 L 0.992188 14.015625 L 0.992188 14.679688 L 2.316406 14.679688 Z M 2.316406 14.015625 "/>
<path style=" stroke:none;fill-rule:nonzero;fill:url(#radial2);" d="M 2.316406 14.015625 L 0.992188 14.015625 L 0.992188 13.355469 L 2.316406 13.355469 Z M 2.316406 14.015625 "/>
<path style=" stroke:none;fill-rule:nonzero;fill:url(#radial3);" d="M 13.5625 14.015625 L 14.882812 14.015625 L 14.882812 14.679688 L 13.5625 14.679688 Z M 13.5625 14.015625 "/>
<path style=" stroke:none;fill-rule:nonzero;fill:url(#linear1);" d="M 1.652344 2.109375 L 14.222656 2.109375 C 14.589844 2.109375 14.882812 2.390625 14.882812 2.734375 L 14.882812 13.390625 C 14.882812 13.738281 14.589844 14.015625 14.222656 14.015625 L 1.652344 14.015625 C 1.289062 14.015625 0.992188 13.738281 0.992188 13.390625 L 0.992188 2.734375 C 0.992188 2.390625 1.289062 2.109375 1.652344 2.109375 Z M 1.652344 2.109375 "/>
<path style=" stroke:none;fill-rule:nonzero;fill:rgb(100%,100%,100%);fill-opacity:0.392157;" d="M 1.652344 2.109375 C 1.289062 2.109375 0.992188 2.386719 0.992188 2.734375 L 0.992188 2.898438 C 0.992188 2.554688 1.289062 2.273438 1.652344 2.273438 L 14.222656 2.273438 C 14.589844 2.273438 14.882812 2.554688 14.882812 2.898438 L 14.882812 2.734375 C 14.882812 2.386719 14.589844 2.109375 14.222656 2.109375 Z M 1.652344 2.109375 "/>
<path style=" stroke:none;fill-rule:nonzero;fill:rgb(0%,0%,0%);fill-opacity:0.235294;" d="M 1.652344 14.023438 C 1.289062 14.023438 0.992188 13.742188 0.992188 13.398438 L 0.992188 13.230469 C 0.992188 13.578125 1.289062 13.855469 1.652344 13.855469 L 14.222656 13.855469 C 14.589844 13.855469 14.882812 13.578125 14.882812 13.230469 L 14.882812 13.398438 C 14.882812 13.742188 14.589844 14.023438 14.222656 14.023438 Z M 1.652344 14.023438 "/>
<path style=" stroke:none;fill-rule:nonzero;fill:rgb(6.666667%,6.666667%,6.666667%);fill-opacity:0.588235;" d="M 1.984375 2.730469 C 1.78125 2.730469 1.613281 2.898438 1.613281 3.101562 L 1.613281 12.363281 C 1.613281 12.566406 1.78125 12.734375 1.984375 12.734375 L 13.890625 12.734375 C 14.097656 12.734375 14.261719 12.566406 14.261719 12.363281 L 14.261719 3.101562 C 14.261719 2.898438 14.097656 2.730469 13.890625 2.730469 Z M 1.984375 2.808594 L 13.890625 2.808594 C 14.054688 2.808594 14.183594 2.941406 14.183594 3.101562 L 14.183594 12.363281 C 14.183594 12.527344 14.054688 12.65625 13.890625 12.65625 L 1.984375 12.65625 C 1.824219 12.65625 1.691406 12.527344 1.691406 12.363281 L 1.691406 3.101562 C 1.691406 2.941406 1.824219 2.808594 1.984375 2.808594 Z M 1.984375 2.808594 "/>
<path style=" stroke:none;fill-rule:nonzero;fill:url(#linear2);" d="M 1.984375 2.769531 L 13.890625 2.769531 C 14.074219 2.769531 14.222656 2.917969 14.222656 3.101562 L 14.222656 12.363281 C 14.222656 12.546875 14.074219 12.695312 13.890625 12.695312 L 1.984375 12.695312 C 1.800781 12.695312 1.652344 12.546875 1.652344 12.363281 L 1.652344 3.101562 C 1.652344 2.917969 1.800781 2.769531 1.984375 2.769531 Z M 1.984375 2.769531 "/>
<path style=" stroke:none;fill-rule:nonzero;fill:rgb(87.058824%,87.058824%,87.058824%);fill-opacity:0.705882;" d="M 1.984375 2.816406 C 1.824219 2.816406 1.699219 2.945312 1.699219 3.101562 L 1.699219 12.363281 C 1.699219 12.523438 1.824219 12.648438 1.984375 12.648438 L 13.890625 12.648438 C 14.050781 12.648438 14.179688 12.523438 14.179688 12.363281 L 14.179688 3.101562 C 14.179688 2.945312 14.050781 2.816406 13.890625 2.816406 Z M 1.984375 2.894531 L 13.890625 2.894531 C 14.007812 2.894531 14.101562 2.984375 14.101562 3.101562 L 14.101562 12.363281 C 14.101562 12.480469 14.007812 12.570312 13.890625 12.570312 L 1.984375 12.570312 C 1.867188 12.570312 1.777344 12.480469 1.777344 12.363281 L 1.777344 3.101562 C 1.777344 2.984375 1.867188 2.894531 1.984375 2.894531 Z M 1.984375 2.894531 "/>
<path style="fill:none;stroke-width:3;stroke-linecap:round;stroke-linejoin:miter;stroke:rgb(12.941177%,12.941177%,12.941177%);stroke-opacity:1;stroke-miterlimit:4;" d="M 52.869951 -147.506445 L 455.081542 -147.506445 C 466.83042 -147.506445 476.204525 -138.507305 476.204525 -127.508355 L 476.204525 213.459084 C 476.204525 224.583022 466.83042 233.457174 455.081542 233.457174 L 52.869951 233.457174 C 41.246061 233.457174 31.746968 224.583022 31.746968 213.459084 L 31.746968 -127.508355 C 31.746968 -138.507305 41.246061 -147.506445 52.869951 -147.506445 Z M 52.869951 -147.506445 " transform="matrix(0.031253,0,0,0.031253,0,6.719392)"/>
<path style=" stroke:none;fill-rule:nonzero;fill:rgb(92.54902%,92.54902%,92.54902%);fill-opacity:0.588235;" d="M 8.28125 4.757812 C 8.164062 4.753906 8.050781 4.8125 7.988281 4.910156 L 6.335938 7.558594 C 6.230469 7.722656 6.292969 7.941406 6.46875 8.027344 L 7.609375 8.394531 L 6.964844 10.273438 C 6.910156 10.429688 6.980469 10.597656 7.125 10.671875 C 7.265625 10.746094 7.445312 10.707031 7.542969 10.578125 L 9.527344 7.929688 C 9.648438 7.765625 9.59375 7.527344 9.410156 7.4375 L 8.269531 7.070312 L 8.59375 5.140625 C 8.628906 4.945312 8.480469 4.761719 8.28125 4.757812 Z M 8.28125 4.757812 "/>
<path style=" stroke:none;fill-rule:nonzero;fill:rgb(0%,0%,0%);fill-opacity:0.235294;" d="M 8.570312 5.28125 L 8.269531 7.070312 L 8.320312 7.089844 L 8.59375 5.472656 C 8.605469 5.40625 8.597656 5.339844 8.570312 5.28125 Z M 9.546875 7.898438 C 9.539062 7.910156 9.535156 7.921875 9.527344 7.929688 L 7.542969 10.578125 C 7.445312 10.707031 7.265625 10.746094 7.125 10.671875 C 7.0625 10.640625 7.015625 10.59375 6.988281 10.535156 L 6.964844 10.605469 C 6.910156 10.757812 6.980469 10.925781 7.125 11.003906 C 7.265625 11.078125 7.445312 11.039062 7.542969 10.90625 L 9.527344 8.261719 C 9.609375 8.152344 9.609375 8.007812 9.546875 7.898438 Z M 6.328125 7.898438 C 6.234375 8.0625 6.296875 8.273438 6.46875 8.359375 L 7.503906 8.691406 L 7.609375 8.394531 L 6.46875 8.027344 C 6.40625 7.996094 6.359375 7.953125 6.328125 7.898438 Z M 6.328125 7.898438 "/>
<path style=" stroke:none;fill-rule:nonzero;fill:rgb(100%,100%,100%);fill-opacity:0.392157;" d="M 8.257812 4.757812 C 8.148438 4.757812 8.046875 4.816406 7.988281 4.910156 L 6.335938 7.558594 C 6.265625 7.664062 6.269531 7.796875 6.328125 7.898438 C 6.332031 7.894531 6.332031 7.890625 6.335938 7.886719 L 7.988281 5.242188 C 8.050781 5.140625 8.164062 5.082031 8.28125 5.085938 C 8.414062 5.089844 8.523438 5.171875 8.570312 5.28125 L 8.59375 5.140625 C 8.628906 4.945312 8.480469 4.761719 8.28125 4.757812 C 8.273438 4.757812 8.265625 4.757812 8.257812 4.757812 Z M 8.320312 7.089844 L 8.269531 7.402344 L 9.410156 7.765625 C 9.46875 7.796875 9.515625 7.84375 9.546875 7.898438 C 9.640625 7.734375 9.582031 7.523438 9.410156 7.4375 Z M 7.503906 8.691406 L 6.964844 10.273438 C 6.933594 10.363281 6.945312 10.457031 6.988281 10.535156 L 7.609375 8.722656 Z M 7.503906 8.691406 "/>
<path style="fill:none;stroke-width:3;stroke-linecap:round;stroke-linejoin:round;stroke:rgb(12.941177%,12.941177%,12.941177%);stroke-opacity:1;stroke-miterlimit:4;" d="M 264.974696 -62.764538 C 261.225054 -62.889526 257.6004 -61.014705 255.600591 -57.890003 L 202.73064 26.851904 C 199.355962 32.101403 201.355771 39.100735 206.980234 41.850472 L 243.476749 53.59935 L 222.853719 113.718609 C 221.103886 118.718132 223.353671 124.092618 227.978229 126.467391 C 232.477799 128.842165 238.22725 127.592284 241.351952 123.467678 L 304.845889 38.72577 C 308.720519 33.476272 306.970686 25.852 301.096247 22.977274 L 264.599732 11.228396 L 274.973741 -50.515707 C 276.098634 -56.765111 271.349087 -62.63955 264.974696 -62.764538 Z M 264.974696 -62.764538 " transform="matrix(0.031253,0,0,0.031253,0,6.719392)"/>
</g>
</svg>
